public/solo-logo-white.svg

<svg width="544" height="135" viewBox="0 0 544 135" fill="none" xmlns="http://www.w3.org/2000/svg">
<path d="M215.544 113.792C196.941 113.792 183.288 110.677 174.584 104.448C165.88 98.2187 161.528 89.8133 161.528 79.232V77.696H189.688V78.592C189.688 83.1147 191.651 86.656 195.576 89.216C199.587 91.776 206.243 93.056 215.544 93.056C222.115 93.056 227.277 92.672 231.032 91.904C234.872 91.0507 237.475 89.984 238.84 88.704C240.291 87.3387 241.016 85.8027 241.016 84.096C241.016 81.4507 239.736 79.5307 237.176 78.336C234.701 77.056 231.544 76.2027 227.704 75.776C223.949 75.3493 218.787 74.9653 212.216 74.624C201.891 74.1973 193.357 73.4293 186.616 72.32C179.96 71.2107 174.2 68.8213 169.336 65.152C164.557 61.4827 162.168 55.936 162.168 48.512C162.168 40.064 166.264 33.3227 174.456 28.288C182.733 23.168 196.344 20.608 215.288 20.608C227.576 20.608 237.645 22.1013 245.496 25.088C253.432 27.9893 259.235 31.9147 262.904 36.864C266.659 41.728 268.536 47.3173 268.536 53.632V54.784H240.376V53.632C240.376 51.4987 239.523 49.4933 237.816 47.616C236.195 45.7387 233.507 44.2453 229.752 43.136C225.997 41.9413 221.176 41.344 215.288 41.344C205.816 41.344 199.288 42.112 195.704 43.648C192.12 45.184 190.328 47.232 190.328 49.792C190.328 51.9253 191.437 53.504 193.656 54.528C195.96 55.552 198.819 56.2347 202.232 56.576C205.645 56.9173 210.552 57.216 216.952 57.472C227.448 57.728 236.195 58.368 243.192 59.392C250.189 60.416 256.248 62.848 261.368 66.688C266.573 70.528 269.176 76.3307 269.176 84.096C269.176 92.9707 264.909 100.139 256.376 105.6C247.928 111.061 234.317 113.792 215.544 113.792ZM325.688 113.792C315.789 113.792 307.341 112.256 300.344 109.184C293.432 106.112 288.227 102.016 284.728 96.896C281.229 91.6907 279.48 85.888 279.48 79.488C279.48 73.088 281.229 67.2853 284.728 62.08C288.227 56.8747 293.432 52.7787 300.344 49.792C307.341 46.72 315.789 45.184 325.688 45.184C335.587 45.184 343.992 46.72 350.904 49.792C357.816 52.7787 363.021 56.8747 366.52 62.08C370.104 67.2853 371.896 73.088 371.896 79.488C371.896 85.888 370.104 91.6907 366.52 96.896C363.021 102.016 357.816 106.112 350.904 109.184C343.992 112.256 335.587 113.792 325.688 113.792ZM325.688 94.72C330.381 94.72 334.349 94.0373 337.592 92.672C340.92 91.3067 343.395 89.472 345.016 87.168C346.723 84.864 347.576 82.304 347.576 79.488C347.576 76.672 346.723 74.112 345.016 71.808C343.395 69.4187 340.92 67.5413 337.592 66.176C334.349 64.8107 330.381 64.128 325.688 64.128C320.909 64.128 316.899 64.8107 313.656 66.176C310.413 67.5413 307.939 69.4187 306.232 71.808C304.611 74.112 303.8 76.672 303.8 79.488C303.8 82.304 304.611 84.864 306.232 87.168C307.939 89.472 310.413 91.3067 313.656 92.672C316.899 94.0373 320.909 94.72 325.688 94.72ZM399.026 48.512C399.026 46.0373 398.471 44.288 397.362 43.264C396.338 42.24 394.418 41.728 391.602 41.728C390.066 41.728 388.701 41.8987 387.506 42.24C386.397 42.5813 385.245 43.0933 384.05 43.776V23.68C386.269 22.5707 388.743 21.8027 391.474 21.376C394.29 20.864 397.319 20.608 400.562 20.608C406.45 20.608 411.015 21.248 414.258 22.528C417.586 23.808 419.933 25.7707 421.298 28.416C422.749 31.0613 423.474 34.688 423.474 39.296V108.672H399.026V48.512ZM374.194 112V92.032H445.106V112H374.194ZM492.438 113.792C482.539 113.792 474.091 112.256 467.094 109.184C460.182 106.112 454.977 102.016 451.478 96.896C447.979 91.6907 446.23 85.888 446.23 79.488C446.23 73.088 447.979 67.2853 451.478 62.08C454.977 56.8747 460.182 52.7787 467.094 49.792C474.091 46.72 482.539 45.184 492.438 45.184C502.337 45.184 510.742 46.72 517.654 49.792C524.566 52.7787 529.771 56.8747 533.27 62.08C536.854 67.2853 538.646 73.088 538.646 79.488C538.646 85.888 536.854 91.6907 533.27 96.896C529.771 102.016 524.566 106.112 517.654 109.184C510.742 112.256 502.337 113.792 492.438 113.792ZM492.438 94.72C497.131 94.72 501.099 94.0373 504.342 92.672C507.67 91.3067 510.145 89.472 511.766 87.168C513.473 84.864 514.326 82.304 514.326 79.488C514.326 76.672 513.473 74.112 511.766 71.808C510.145 69.4187 507.67 67.5413 504.342 66.176C501.099 64.8107 497.131 64.128 492.438 64.128C487.659 64.128 483.649 64.8107 480.406 66.176C477.163 67.5413 474.689 69.4187 472.982 71.808C471.361 74.112 470.55 76.672 470.55 79.488C470.55 82.304 471.361 84.864 472.982 87.168C474.689 89.472 477.163 91.3067 480.406 92.672C483.649 94.0373 487.659 94.72 492.438 94.72Z" fill="white"/>
<circle cx="38.829" cy="30.594" r="27.7266" transform="rotate(6.2821 38.829 30.594)" fill="white"/>
<circle cx="116.293" cy="71.5698" r="19.8047" transform="rotate(6.2821 116.293 71.5698)" fill="white"/>
<circle cx="29.8562" cy="117.273" r="15.8438" transform="rotate(6.2821 29.8562 117.273)" fill="white"/>
<rect x="32.4047" y="42.4107" width="10.1853" height="72.4286" transform="rotate(6.2821 32.4047 42.4107)" fill="white"/>
<rect x="103.389" y="73.0164" width="10.1853" height="81.2662" transform="rotate(61.2593 103.389 73.0164)" fill="white"/>
</svg>

<svg width="544" height="135" viewBox="0 0 544 135" fill="none" xmlns="http://www.w3.org/2000/svg"><path d="M215.544 113.792q-27.904 0-40.96-9.344-13.056-9.345-13.056-25.216v-1.536h28.16v.896q0 6.784 5.888 10.624 6.017 3.84 19.968 3.84 9.856 0 15.488-1.152 5.76-1.28 7.808-3.2 2.176-2.047 2.176-4.608 0-3.968-3.84-5.76-3.712-1.92-9.472-2.56-5.632-.64-15.488-1.152-15.488-.64-25.6-2.304-9.984-1.665-17.28-7.168-7.168-5.505-7.168-16.64 0-12.672 12.288-20.224 12.416-7.68 40.832-7.68 18.432 0 30.208 4.48 11.904 4.352 17.408 11.776 5.632 7.296 5.632 16.768v1.152h-28.16v-1.152q0-3.2-2.56-6.016-2.431-2.815-8.064-4.48-5.632-1.792-14.464-1.792-14.208 0-19.584 2.304t-5.376 6.144q0 3.2 3.328 4.736 3.456 1.536 8.576 2.048t14.72.896q15.744.384 26.24 1.92t18.176 7.296q7.808 5.76 7.808 17.408 0 13.313-12.8 21.504-12.672 8.192-40.832 8.192m110.144 0q-14.848 0-25.344-4.608-10.368-4.608-15.616-12.288-5.248-7.808-5.248-17.408t5.248-17.408 15.616-12.288q10.496-4.608 25.344-4.608t25.216 4.608q10.368 4.48 15.616 12.288 5.376 7.808 5.376 17.408t-5.376 17.408q-5.248 7.68-15.616 12.288t-25.216 4.608m0-19.072q7.04 0 11.904-2.048 4.992-2.048 7.424-5.504 2.56-3.456 2.56-7.68t-2.56-7.68q-2.432-3.585-7.424-5.632-4.865-2.048-11.904-2.048-7.168 0-12.032 2.048t-7.424 5.632q-2.432 3.456-2.432 7.68t2.432 7.68q2.56 3.456 7.424 5.504t12.032 2.048m73.338-46.208q0-3.712-1.664-5.248-1.536-1.536-5.76-1.536-2.304 0-4.096.512-1.663.511-3.456 1.536V23.68q3.328-1.664 7.424-2.304 4.224-.768 9.088-.768 8.832 0 13.696 1.92 4.992 1.92 7.04 5.888 2.176 3.968 2.176 10.88v69.376h-24.448zM374.194 112V92.032h70.912V112zm118.244 1.792q-14.848 0-25.344-4.608-10.368-4.608-15.616-12.288-5.248-7.808-5.248-17.408t5.248-17.408 15.616-12.288q10.496-4.608 25.344-4.608t25.216 4.608q10.368 4.48 15.616 12.288 5.376 7.808 5.376 17.408t-5.376 17.408q-5.248 7.68-15.616 12.288t-25.216 4.608m0-19.072q7.04 0 11.904-2.048 4.992-2.048 7.424-5.504 2.56-3.456 2.56-7.68t-2.56-7.68q-2.432-3.585-7.424-5.632-4.864-2.048-11.904-2.048-7.168 0-12.032 2.048t-7.424 5.632q-2.432 3.456-2.432 7.68t2.432 7.68q2.56 3.456 7.424 5.504t12.032 2.048" fill="#fff"/><circle cx="38.829" cy="30.594" r="27.727" transform="rotate(6.282 38.829 30.594)" fill="#fff"/><circle cx="116.293" cy="71.57" r="19.805" transform="rotate(6.282 116.293 71.57)" fill="#fff"/><circle cx="29.856" cy="117.273" r="15.844" transform="rotate(6.282 29.856 117.273)" fill="#fff"/><path fill="#fff" d="m32.405 42.411 10.124 1.114-7.926 71.995-10.123-1.115z"/><path fill="#fff" d="m103.389 73.016 4.897 8.93-71.255 39.076-4.897-8.93z"/></svg>
